source/illustrations/compile.svg

<?xml version="1.0" encoding="UTF-8" standalone="no"?>
<!-- Created with Inkscape (http://www.inkscape.org/) -->

<svg
   xmlns:dc="http://purl.org/dc/elements/1.1/"
   xmlns:cc="http://creativecommons.org/ns#"
   xmlns:rdf="http://www.w3.org/1999/02/22-rdf-syntax-ns#"
   xmlns:svg="http://www.w3.org/2000/svg"
   xmlns="http://www.w3.org/2000/svg"
   xmlns:sodipodi="http://sodipodi.sourceforge.net/DTD/sodipodi-0.dtd"
   xmlns:inkscape="http://www.inkscape.org/namespaces/inkscape"
   id="svg2440"
   sodipodi:version="0.32"
   inkscape:version="0.47 r22583"
   width="410"
   height="62"
   version="1.0"
   sodipodi:docname="compile.svg"
   inkscape:output_extension="org.inkscape.output.svg.inkscape">
  <metadata
     id="metadata2445">
    <rdf:RDF>
      <cc:Work
         rdf:about="">
        <dc:format>image/svg+xml</dc:format>
        <dc:type
           rdf:resource="http://purl.org/dc/dcmitype/StillImage" />
      </cc:Work>
    </rdf:RDF>
  </metadata>
  <defs
     id="defs2443">
    <marker
       inkscape:stockid="Arrow2Send"
       orient="auto"
       refY="0"
       refX="0"
       id="Arrow2Send"
       style="overflow:visible">
      <path
         id="path4067"
         style="font-size:12px;fill-rule:evenodd;stroke-width:0.625;stroke-linejoin:round"
         d="M 8.7185878,4.0337352 -2.2072895,0.01601326 8.7185884,-4.0017078 c -1.7454984,2.3720609 -1.7354408,5.6174519 -6e-7,8.035443 z"
         transform="matrix(-0.3,0,0,-0.3,0.69,0)" />
    </marker>
    <marker
       inkscape:stockid="Arrow2Mend"
       orient="auto"
       refY="0"
       refX="0"
       id="Arrow2Mend"
       style="overflow:visible">
      <path
         id="path4061"
         style="font-size:12px;fill-rule:evenodd;stroke-width:0.625;stroke-linejoin:round"
         d="M 8.7185878,4.0337352 -2.2072895,0.01601326 8.7185884,-4.0017078 c -1.7454984,2.3720609 -1.7354408,5.6174519 -6e-7,8.035443 z"
         transform="scale(-0.6,-0.6)" />
    </marker>
    <marker
       inkscape:stockid="Arrow1Mend"
       orient="auto"
       refY="0"
       refX="0"
       id="Arrow1Mend"
       style="overflow:visible">
      <path
         id="path4043"
         d="M 0,0 5,-5 -12.5,0 5,5 0,0 z"
         style="fill-rule:evenodd;stroke:#000000;stroke-width:1pt;marker-start:none"
         transform="matrix(-0.4,0,0,-0.4,-4,0)" />
    </marker>
    <marker
       inkscape:stockid="Arrow1Lend"
       orient="auto"
       refY="0"
       refX="0"
       id="Arrow1Lend"
       style="overflow:visible">
      <path
         id="path4037"
         d="M 0,0 5,-5 -12.5,0 5,5 0,0 z"
         style="fill-rule:evenodd;stroke:#000000;stroke-width:1pt;marker-start:none"
         transform="matrix(-0.8,0,0,-0.8,-10,0)" />
    </marker>
    <inkscape:perspective
       sodipodi:type="inkscape:persp3d"
       inkscape:vp_x="0 : 526.18109 : 1"
       inkscape:vp_y="0 : 1000 : 0"
       inkscape:vp_z="744.09448 : 526.18109 : 1"
       inkscape:persp3d-origin="372.04724 : 350.78739 : 1"
       id="perspective2447" />
  </defs>
  <sodipodi:namedview
     inkscape:window-height="780"
     inkscape:window-width="1599"
     inkscape:pageshadow="2"
     inkscape:pageopacity="0.0"
     guidetolerance="10.0"
     gridtolerance="10.0"
     objecttolerance="10.0"
     borderopacity="1.0"
     bordercolor="#666666"
     pagecolor="#ffffff"
     id="base"
     showgrid="false"
     inkscape:zoom="2.8697124"
     inkscape:cx="204.7532"
     inkscape:cy="31.172474"
     inkscape:window-x="189"
     inkscape:window-y="91"
     inkscape:current-layer="svg2440"
     inkscape:window-maximized="0" />
  <g
     id="g8689"
     transform="translate(-0.0288472,0.77280257)">
    <g
       style="fill:#ffeeaa"
       id="g3265">
      <path
         style="fill:#ffeeaa;fill-rule:evenodd;stroke:#edab24;stroke-width:1px;stroke-linecap:butt;stroke-linejoin:miter;stroke-opacity:1"
         d="m 3.316583,3.7939699 0,54.3919601 49.417086,0 0,-45.105528 L 44.110552,4.2914573 3.316583,3.7939699 z"
         id="path2451" />
      <path
         style="fill:#ffeeaa;fill-rule:evenodd;stroke:#ecbc2a;stroke-width:0.5;stroke-linecap:butt;stroke-linejoin:miter;stroke-miterlimit:4;stroke-opacity:1;stroke-dasharray:none"
         d="m 44.608039,4.7889447 0,8.2914573 7.628141,0 -7.628141,-8.2914573 z"
         id="path2463" />
    </g>
    <text
       id="text3269"
       y="27.175879"
       x="7.9597983"
       style="font-size:12px;font-style:normal;font-weight:normal;fill:#000000;fill-opacity:1;stroke:none;font-family:Bitstream Vera Sans"
       xml:space="preserve"><tspan
         y="27.175879"
         x="7.9597983"
         id="tspan3271"
         sodipodi:role="line">Source</tspan><tspan
         id="tspan3273"
         y="42.17588"
         x="7.9597983"
         sodipodi:role="line">Code</tspan></text>
  </g>
  <g
     id="g8676"
     transform="translate(-8.4965632,1.1409641)">
    <path
       id="path2453"
       d="M 87.191095,8.0626608 86.693608,53.168188 164.46747,53.665676 163.96998,7.3993442 87.191095,8.0626608 z"
       style="fill:#ccffaa;fill-rule:evenodd;stroke:#21360e;stroke-width:1;stroke-linecap:butt;stroke-linejoin:miter;stroke-miterlimit:4;stroke-opacity:1;stroke-dasharray:none" />
    <path
       id="path2459"
       d="m 80.723758,20.062661 0,21.723618 6.467337,-5.472362 -0.497487,-10.281407 -5.96985,-5.969849 z"
       style="fill:#ccffaa;fill-rule:evenodd;stroke:#21360e;stroke-width:1px;stroke-linecap:butt;stroke-linejoin:miter;stroke-opacity:1" />
    <path
       id="path2461"
       d="m 164.46747,24.253616 5.47236,-5.306533 0,22.221105 -5.47236,-5.472361 0,-11.442211 z"
       style="fill:#ccffaa;fill-rule:evenodd;stroke:#21360e;stroke-width:1px;stroke-linecap:butt;stroke-linejoin:miter;stroke-opacity:1" />
    <text
       id="text3275"
       y="33.600346"
       x="96.552216"
       style="font-size:12px;font-style:normal;font-weight:normal;fill:#000000;fill-opacity:1;stroke:none;font-family:Bitstream Vera Sans"
       xml:space="preserve"><tspan
         y="33.600346"
         x="96.552216"
         id="tspan3277"
         sodipodi:role="line">Compiler</tspan></text>
  </g>
  <g
     id="g7520"
     transform="translate(144.48258,0.61037877)">
    <path
       id="path2457"
       d="m 200.15578,2.1356784 0,50.5778896 61.52261,-0.497488 0,-49.5829142 -61.52261,-0.4974874 z"
       style="fill:#e6e6e6;fill-rule:evenodd;stroke:#000000;stroke-width:1px;stroke-linecap:butt;stroke-linejoin:miter;stroke-opacity:1" />
    <path
       id="path2455"
       d="m 203.96985,5.9497488 -0.49749,43.1155782 55.55277,0 -0.49749,-43.1155782 -54.55779,0 z"
       style="fill:#ffffff;fill-rule:evenodd;stroke:#000000;stroke-width:1px;stroke-linecap:butt;stroke-linejoin:miter;stroke-opacity:1" />
    <path
       id="path2465"
       d="m 217.56784,52.713568 0,3.316583 27.36181,0 -0.66332,-3.814071 -26.69849,0.497488 z"
       style="fill:#999999;fill-rule:evenodd;stroke:#000000;stroke-width:1px;stroke-linecap:butt;stroke-linejoin:miter;stroke-opacity:1" />
    <path
       id="path2467"
       d="m 211.59799,56.527638 0,2.819096 39.79899,0.497487 0,-3.81407 -39.79899,0.497487 z"
       style="fill:#999999;fill-rule:evenodd;stroke:#000000;stroke-width:1px;stroke-linecap:butt;stroke-linejoin:miter;stroke-opacity:1" />
    <text
       id="text3279"
       y="30.824121"
       x="210.10553"
       style="font-size:12px;font-style:normal;font-weight:normal;fill:#000000;fill-opacity:1;stroke:none;font-family:Bitstream Vera Sans"
       xml:space="preserve"><tspan
         y="30.824121"
         x="210.10553"
         id="tspan3281"
         sodipodi:role="line">Output</tspan></text>
  </g>
  <text
     xml:space="preserve"
     style="font-size:12px;font-style:normal;font-weight:normal;fill:#000000;fill-opacity:1;stroke:none;font-family:Bitstream Vera Sans"
     x="86.383095"
     y="59.581806"
     id="text8647"><tspan
       sodipodi:role="line"
       id="tspan8649"
       x="86.383095"
       y="59.581806" /></text>
  <g
     id="g8683"
     transform="translate(-26.536479,0.77280257)">
    <rect
       y="2.9258077"
       x="202.40559"
       height="54.837795"
       width="49.424622"
       id="rect8651"
       style="fill:#aaeeff;fill-rule:evenodd;stroke:#000000;stroke-width:1px;stroke-linecap:butt;stroke-linejoin:miter;stroke-opacity:1" />
    <text
       id="text8653"
       y="26.696697"
       x="207.1127"
       style="font-size:12px;font-style:normal;font-weight:normal;fill:#000000;fill-opacity:1;stroke:none;font-family:Bitstream Vera Sans"
       xml:space="preserve"><tspan
         y="26.696697"
         x="207.1127"
         id="tspan8655"
         sodipodi:role="line">Object</tspan><tspan
         id="tspan8657"
         y="41.696697"
         x="207.1127"
         sodipodi:role="line">Code</tspan></text>
  </g>
  <g
     id="g8669"
     transform="translate(333.69002,54.753246)">
    <path
       id="path8659"
       d="m -87.329967,-47.315973 -0.497487,45.1055274 77.773862,0.497488 -0.49749,-46.2663314 -76.778885,0.663316 z"
       style="fill:#ffd5f6;fill-rule:evenodd;stroke:#21360e;stroke-width:1;stroke-linecap:butt;stroke-linejoin:miter;stroke-miterlimit:4;stroke-opacity:1;stroke-dasharray:none" />
    <path
       id="path8661"
       d="m -93.797304,-35.315973 0,21.723618 6.467337,-5.472362 -0.497487,-10.281407 -5.96985,-5.969849 z"
       style="fill:#ffd5f6;fill-rule:evenodd;stroke:#21360e;stroke-width:1px;stroke-linecap:butt;stroke-linejoin:miter;stroke-opacity:1" />
    <path
       id="path8663"
       d="m -10.053592,-31.125018 5.4723602,-5.306533 0,22.221105 -5.4723602,-5.472361 0,-11.442211 z"
       style="fill:#ffd5f6;fill-rule:evenodd;stroke:#21360e;stroke-width:1px;stroke-linecap:butt;stroke-linejoin:miter;stroke-opacity:1" />
    <text
       id="text8665"
       y="-21.778288"
       x="-77.968849"
       style="font-size:12px;font-style:normal;font-weight:normal;fill:#000000;fill-opacity:1;stroke:none;font-family:Bitstream Vera Sans"
       xml:space="preserve"><tspan
         y="-21.778288"
         x="-77.968849"
         id="tspan8667"
         sodipodi:role="line">Executor</tspan></text>
  </g>
  <path
     style="fill:none;stroke:#000000;stroke-width:1px;stroke-linecap:butt;stroke-linejoin:miter;stroke-opacity:1;marker-end:url(#Arrow2Mend)"
     d="m 52.704822,31.737922 25.741455,-0.02587"
     id="path8697"
     inkscape:connector-type="polyline"
     inkscape:connection-start="#g8689"
     inkscape:connection-end="#g8676" />
  <path
     style="fill:none;stroke:#000000;stroke-width:1px;stroke-linecap:butt;stroke-linejoin:miter;stroke-opacity:1;marker-end:url(#Arrow2Mend)"
     d="m 161.44327,31.377335 14.42584,-0.09577"
     id="path8699"
     inkscape:connector-type="polyline"
     inkscape:connection-start="#g8676"
     inkscape:connection-end="#g8683" />
  <path
     style="fill:none;stroke:#000000;stroke-width:1px;stroke-linecap:butt;stroke-linejoin:miter;stroke-opacity:1;marker-end:url(#Arrow2Mend)"
     d="m 225.29374,30.761077 20.81238,-0.300181"
     id="path8701"
     inkscape:connector-type="polyline"
     inkscape:connection-start="#g8683"
     inkscape:connection-end="#g8669" />
  <path
     style="fill:none;stroke:#000000;stroke-width:1px;stroke-linecap:butt;stroke-linejoin:miter;stroke-opacity:1;marker-end:url(#Arrow2Mend)"
     d="m 329.10879,30.738052 15.52957,0.289275"
     id="path8703"
     inkscape:connector-type="polyline"
     inkscape:connection-start="#g8669"
     inkscape:connection-end="#g7520" />
</svg>

<?xml version="1.0" encoding="UTF-8" standalone="no"?>
<!-- Created with Inkscape (http://www.inkscape.org/) -->
<svg
   xmlns:dc="http://purl.org/dc/elements/1.1/"
   xmlns:cc="http://creativecommons.org/ns#"
   xmlns:rdf="http://www.w3.org/1999/02/22-rdf-syntax-ns#"
   xmlns:svg="http://www.w3.org/2000/svg"
   xmlns="http://www.w3.org/2000/svg"
   xmlns:sodipodi="http://sodipodi.sourceforge.net/DTD/sodipodi-0.dtd"
   xmlns:inkscape="http://www.inkscape.org/namespaces/inkscape"
   id="svg2440"
   sodipodi:version="0.32"
   inkscape:version="0.46"
   width="403.87323"
   height="58.708542"
   version="1.0"
   sodipodi:docname="compile.svg"
   inkscape:output_extension="org.inkscape.output.svg.inkscape">
  <metadata
     id="metadata2445">
    <rdf:RDF>
      <cc:Work
         rdf:about="">
        <dc:format>image/svg+xml</dc:format>
        <dc:type
           rdf:resource="http://purl.org/dc/dcmitype/StillImage" />
      </cc:Work>
    </rdf:RDF>
  </metadata>
  <defs
     id="defs2443">
    <marker
       inkscape:stockid="Arrow2Send"
       orient="auto"
       refY="0"
       refX="0"
       id="Arrow2Send"
       style="overflow:visible">
      <path
         id="path4067"
         style="font-size:12px;fill-rule:evenodd;stroke-width:0.625;stroke-linejoin:round"
         d="M 8.7185878,4.0337352 L -2.2072895,0.016013256 L 8.7185884,-4.0017078 C 6.97309,-1.6296469 6.9831476,1.6157441 8.7185878,4.0337352 z"
         transform="matrix(-0.3,0,0,-0.3,0.69,0)" />
    </marker>
    <marker
       inkscape:stockid="Arrow2Mend"
       orient="auto"
       refY="0"
       refX="0"
       id="Arrow2Mend"
       style="overflow:visible">
      <path
         id="path4061"
         style="font-size:12px;fill-rule:evenodd;stroke-width:0.625;stroke-linejoin:round"
         d="M 8.7185878,4.0337352 L -2.2072895,0.016013256 L 8.7185884,-4.0017078 C 6.97309,-1.6296469 6.9831476,1.6157441 8.7185878,4.0337352 z"
         transform="scale(-0.6,-0.6)" />
    </marker>
    <marker
       inkscape:stockid="Arrow1Mend"
       orient="auto"
       refY="0"
       refX="0"
       id="Arrow1Mend"
       style="overflow:visible">
      <path
         id="path4043"
         d="M 0,0 L 5,-5 L -12.5,0 L 5,5 L 0,0 z"
         style="fill-rule:evenodd;stroke:#000000;stroke-width:1pt;marker-start:none"
         transform="matrix(-0.4,0,0,-0.4,-4,0)" />
    </marker>
    <marker
       inkscape:stockid="Arrow1Lend"
       orient="auto"
       refY="0"
       refX="0"
       id="Arrow1Lend"
       style="overflow:visible">
      <path
         id="path4037"
         d="M 0,0 L 5,-5 L -12.5,0 L 5,5 L 0,0 z"
         style="fill-rule:evenodd;stroke:#000000;stroke-width:1pt;marker-start:none"
         transform="matrix(-0.8,0,0,-0.8,-10,0)" />
    </marker>
    <inkscape:perspective
       sodipodi:type="inkscape:persp3d"
       inkscape:vp_x="0 : 526.18109 : 1"
       inkscape:vp_y="0 : 1000 : 0"
       inkscape:vp_z="744.09448 : 526.18109 : 1"
       inkscape:persp3d-origin="372.04724 : 350.78739 : 1"
       id="perspective2447" />
  </defs>
  <sodipodi:namedview
     inkscape:window-height="780"
     inkscape:window-width="1599"
     inkscape:pageshadow="2"
     inkscape:pageopacity="0.0"
     guidetolerance="10.0"
     gridtolerance="10.0"
     objecttolerance="10.0"
     borderopacity="1.0"
     bordercolor="#666666"
     pagecolor="#ffffff"
     id="base"
     showgrid="false"
     inkscape:zoom="2.8697124"
     inkscape:cx="204.7532"
     inkscape:cy="31.172474"
     inkscape:window-x="3"
     inkscape:window-y="84"
     inkscape:current-layer="svg2440" />
  <g
     id="g8689"
     transform="translate(-2.816583,-1.4732546)">
    <g
       style="fill:#ffeeaa"
       id="g3265">
      <path
         style="fill:#ffeeaa;fill-rule:evenodd;stroke:#edab24;stroke-width:1px;stroke-linecap:butt;stroke-linejoin:miter;stroke-opacity:1"
         d="M 3.316583,3.7939699 L 3.316583,58.18593 L 52.733669,58.18593 L 52.733669,13.080402 L 44.110552,4.2914573 L 3.316583,3.7939699 z"
         id="path2451" />
      <path
         style="fill:#ffeeaa;fill-rule:evenodd;stroke:#ecbc2a;stroke-width:0.5;stroke-linecap:butt;stroke-linejoin:miter;stroke-miterlimit:4;stroke-dasharray:none;stroke-opacity:1"
         d="M 44.608039,4.7889447 L 44.608039,13.080402 L 52.23618,13.080402 L 44.608039,4.7889447 z"
         id="path2463" />
    </g>
    <text
       id="text3269"
       y="27.175879"
       x="7.9597983"
       style="font-size:12px;font-style:normal;font-weight:normal;fill:#000000;fill-opacity:1;stroke:none;stroke-width:1px;stroke-linecap:butt;stroke-linejoin:miter;stroke-opacity:1;font-family:Bitstream Vera Sans"
       xml:space="preserve"><tspan
         y="27.175879"
         x="7.9597983"
         id="tspan3271"
         sodipodi:role="line">Source</tspan><tspan
         id="tspan3273"
         y="42.17588"
         x="7.9597983"
         sodipodi:role="line">Code</tspan></text>
  </g>
  <g
     id="g8676"
     transform="translate(-11.284299,-1.1050931)">
    <path
       id="path2453"
       d="M 87.191095,8.0626608 L 86.693608,53.168188 L 164.46747,53.665676 L 163.96998,7.3993442 L 87.191095,8.0626608 z"
       style="fill:#ccffaa;fill-rule:evenodd;stroke:#21360e;stroke-width:1;stroke-linecap:butt;stroke-linejoin:miter;stroke-miterlimit:4;stroke-dasharray:none;stroke-opacity:1" />
    <path
       id="path2459"
       d="M 80.723758,20.062661 L 80.723758,41.786279 L 87.191095,36.313917 L 86.693608,26.03251 L 80.723758,20.062661 z"
       style="fill:#ccffaa;fill-rule:evenodd;stroke:#21360e;stroke-width:1px;stroke-linecap:butt;stroke-linejoin:miter;stroke-opacity:1" />
    <path
       id="path2461"
       d="M 164.46747,24.253616 L 169.93983,18.947083 L 169.93983,41.168188 L 164.46747,35.695827 L 164.46747,24.253616 z"
       style="fill:#ccffaa;fill-rule:evenodd;stroke:#21360e;stroke-width:1px;stroke-linecap:butt;stroke-linejoin:miter;stroke-opacity:1" />
    <text
       id="text3275"
       y="33.600346"
       x="96.552216"
       style="font-size:12px;font-style:normal;font-weight:normal;fill:#000000;fill-opacity:1;stroke:none;stroke-width:1px;stroke-linecap:butt;stroke-linejoin:miter;stroke-opacity:1;font-family:Bitstream Vera Sans"
       xml:space="preserve"><tspan
         y="33.600346"
         x="96.552216"
         id="tspan3277"
         sodipodi:role="line">Compiler</tspan></text>
  </g>
  <g
     id="g7520"
     transform="translate(141.69484,-1.6356784)">
    <path
       id="path2457"
       d="M 200.15578,2.1356784 L 200.15578,52.713568 L 261.67839,52.21608 L 261.67839,2.6331658 L 200.15578,2.1356784 z"
       style="fill:#e6e6e6;fill-rule:evenodd;stroke:#000000;stroke-width:1px;stroke-linecap:butt;stroke-linejoin:miter;stroke-opacity:1" />
    <path
       id="path2455"
       d="M 203.96985,5.9497488 L 203.47236,49.065327 L 259.02513,49.065327 L 258.52764,5.9497488 L 203.96985,5.9497488 z"
       style="fill:#ffffff;fill-rule:evenodd;stroke:#000000;stroke-width:1px;stroke-linecap:butt;stroke-linejoin:miter;stroke-opacity:1" />
    <path
       id="path2465"
       d="M 217.56784,52.713568 L 217.56784,56.030151 L 244.92965,56.030151 L 244.26633,52.21608 L 217.56784,52.713568 z"
       style="fill:#999999;fill-rule:evenodd;stroke:#000000;stroke-width:1px;stroke-linecap:butt;stroke-linejoin:miter;stroke-opacity:1" />
    <path
       id="path2467"
       d="M 211.59799,56.527638 L 211.59799,59.346734 L 251.39698,59.844221 L 251.39698,56.030151 L 211.59799,56.527638 z"
       style="fill:#999999;fill-rule:evenodd;stroke:#000000;stroke-width:1px;stroke-linecap:butt;stroke-linejoin:miter;stroke-opacity:1" />
    <text
       id="text3279"
       y="30.824121"
       x="210.10553"
       style="font-size:12px;font-style:normal;font-weight:normal;fill:#000000;fill-opacity:1;stroke:none;stroke-width:1px;stroke-linecap:butt;stroke-linejoin:miter;stroke-opacity:1;font-family:Bitstream Vera Sans"
       xml:space="preserve"><tspan
         y="30.824121"
         x="210.10553"
         id="tspan3281"
         sodipodi:role="line">Output</tspan></text>
  </g>
  <text
     xml:space="preserve"
     style="font-size:12px;font-style:normal;font-weight:normal;fill:#000000;fill-opacity:1;stroke:none;stroke-width:1px;stroke-linecap:butt;stroke-linejoin:miter;stroke-opacity:1;font-family:Bitstream Vera Sans"
     x="86.383095"
     y="56.290348"
     id="text8647"><tspan
       sodipodi:role="line"
       id="tspan8649"
       x="86.383095"
       y="56.290348" /></text>
  <g
     id="g8683"
     transform="translate(-29.324215,-1.4732546)">
    <rect
       y="2.9258077"
       x="202.40559"
       height="54.837795"
       width="49.424622"
       id="rect8651"
       style="fill:#aaeeff;fill-rule:evenodd;stroke:#000000;stroke-width:1px;stroke-linecap:butt;stroke-linejoin:miter;stroke-opacity:1" />
    <text
       id="text8653"
       y="26.696697"
       x="207.1127"
       style="font-size:12px;font-style:normal;font-weight:normal;fill:#000000;fill-opacity:1;stroke:none;stroke-width:1px;stroke-linecap:butt;stroke-linejoin:miter;stroke-opacity:1;font-family:Bitstream Vera Sans"
       xml:space="preserve"><tspan
         y="26.696697"
         x="207.1127"
         id="tspan8655"
         sodipodi:role="line">Object</tspan><tspan
         id="tspan8657"
         y="41.696697"
         x="207.1127"
         sodipodi:role="line">Code</tspan></text>
  </g>
  <g
     id="g8669"
     transform="translate(330.90228,52.507189)">
    <path
       id="path8659"
       d="M -87.329967,-47.315973 L -87.827454,-2.2104456 L -10.053592,-1.7129576 L -10.551082,-47.979289 L -87.329967,-47.315973 z"
       style="fill:#ffd5f6;fill-rule:evenodd;stroke:#21360e;stroke-width:1;stroke-linecap:butt;stroke-linejoin:miter;stroke-miterlimit:4;stroke-dasharray:none;stroke-opacity:1" />
    <path
       id="path8661"
       d="M -93.797304,-35.315973 L -93.797304,-13.592355 L -87.329967,-19.064717 L -87.827454,-29.346124 L -93.797304,-35.315973 z"
       style="fill:#ffd5f6;fill-rule:evenodd;stroke:#21360e;stroke-width:1px;stroke-linecap:butt;stroke-linejoin:miter;stroke-opacity:1" />
    <path
       id="path8663"
       d="M -10.053592,-31.125018 L -4.5812318,-36.431551 L -4.5812318,-14.210446 L -10.053592,-19.682807 L -10.053592,-31.125018 z"
       style="fill:#ffd5f6;fill-rule:evenodd;stroke:#21360e;stroke-width:1px;stroke-linecap:butt;stroke-linejoin:miter;stroke-opacity:1" />
    <text
       id="text8665"
       y="-21.778288"
       x="-77.968849"
       style="font-size:12px;font-style:normal;font-weight:normal;fill:#000000;fill-opacity:1;stroke:none;stroke-width:1px;stroke-linecap:butt;stroke-linejoin:miter;stroke-opacity:1;font-family:Bitstream Vera Sans"
       xml:space="preserve"><tspan
         y="-21.778288"
         x="-77.968849"
         id="tspan8667"
         sodipodi:role="line">Executor</tspan></text>
  </g>
  <path
     style="fill:none;fill-rule:evenodd;stroke:#000000;stroke-width:1px;stroke-linecap:butt;stroke-linejoin:miter;marker-end:url(#Arrow2Mend);stroke-opacity:1"
     d="M 50.417086,29.491362 L 68.939459,29.472748"
     id="path8697"
     inkscape:connector-type="polyline"
     inkscape:connection-start="#g8689"
     inkscape:connection-end="#g8676" />
  <path
     style="fill:none;fill-rule:evenodd;stroke:#000000;stroke-width:1px;stroke-linecap:butt;stroke-linejoin:miter;marker-end:url(#Arrow2Mend);stroke-opacity:1"
     d="M 159.15553,29.127958 L 172.58138,29.038828"
     id="path8699"
     inkscape:connector-type="polyline"
     inkscape:connection-start="#g8676"
     inkscape:connection-end="#g8683" />
  <path
     style="fill:none;fill-rule:evenodd;stroke:#000000;stroke-width:1px;stroke-linecap:butt;stroke-linejoin:miter;marker-end:url(#Arrow2Mend);stroke-opacity:1"
     d="M 223.006,28.507809 L 236.60498,28.311668"
     id="path8701"
     inkscape:connector-type="polyline"
     inkscape:connection-start="#g8683"
     inkscape:connection-end="#g8669" />
  <path
     style="fill:none;fill-rule:evenodd;stroke:#000000;stroke-width:1px;stroke-linecap:butt;stroke-linejoin:miter;marker-end:url(#Arrow2Mend);stroke-opacity:1"
     d="M 326.82105,28.501309 L 341.35062,28.771956"
     id="path8703"
     inkscape:connector-type="polyline"
     inkscape:connection-start="#g8669"
     inkscape:connection-end="#g7520" />
</svg>
